X:1
T:Title
%%score { ( 1 3 ) | ( 2 4 ) }
L:1/8
Q:1/4=93
M:6/8
K:D
V:1 treble nm="Grand Piano"
V:3 treble 
V:2 bass 
V:4 bass 
V:1
 [FA][FA][FA] [FA]2 [DF] | [FB]2 [FB] [FB]2 [DF] | [Fd][Fc][FB] [FA]2 [DF] | [EG]3- [EG]2 [^DF] | %4
w: Charles~H.~Gabriel * * * *||||
 [EG][EG][EG] [EG]2 [CE] | [Gc]2 [Gc] [Gc]2 [GB] | [CE][DF][EG] [GB]2 [Gc] | [=FB]3 [^FA]2 [DF] | %8
w: ||||
 [FA][FA][FA] [FA]2 [DF] | [FB]2 [FB] [FB]2 [DF] | [Fd][Fc][FB] [FA]2 [FB] | c3- c2 c | dcd B2 d | %13
w: |||||
 c2 e [EA]2 [FB] | cdc B2 E | A6 | A3 A3 | dc[FB] z2 D | .[DFA]2 [DFA] D2 A | C6 | %20
w: |||||||
 B2- [CGB] B2- [CGB] | [Gc][GB][EG] C2 C | [CE][DF][EG] [FA][GB][Gc] | [Fe]2 [Fd] z2 D | A3 A3 | %25
w: |||||
 z3 F3 | ^D2- [DA] .[B,DF]2 [B,FA] | G6 | ^G3 G3 | z3 d3 | dF[CB] .[A,CA]2 [G,CE] | D6 |] %32
w: |||||||
V:2
 [D,D][D,D][D,D] [D,D]2 [D,A,] | [D,D]2 [D,D] [D,D]2 [D,A,] | [D,A,][D,A,][D,B,] [D,D]2 [D,A,] | %3
 [A,C]3- [A,C]2 [A,,A,] | [A,,A,][A,,A,][A,,A,] [A,,A,]2 [A,,A,] | %5
 [A,,A,]2 [A,,A,] [A,,A,]2 [A,,A,] | [A,,A,][A,,A,][A,,A,] [A,,A,]2 [A,,A,] | %7
 [D,^G,]3 [D,A,]2 [D,A,] | [D,D][D,D][D,D] [D,D]2 [D,A,] | [D,D]2 [D,D] [D,D]2 [D,A,] | %10
 [D,A,][D,A,][D,A,] [D,D]2 [D,A,] | [A,E]3- [A,E]2 [A,E] | %12
 [E,B,E][E,^A,E][E,B,E] [E,^G,E]2 [E,B,E] | [A,E]2 [A,CE] [C,A,]2 [D,A,] | %14
 [E,A,E][E,B,E][E,A,E] [E,^G,D]2 [E,G,D] | A,2- [A,-C] [A,E]3 | D,2 D, [D,D][D,D][D,D] | %17
 [D,A,]2 [D,A,] [D,A,D]2 [D,A,] | z[K:treble] B[K:bass]D, [D,F,]2 [D,F,D] | %19
 [E,G,A,]2 [E,G,] [E,G,]2 [C,A,] | A,,2 A,, A,,2 A,, | [A,,A,][A,,A,][A,,A,] [A,,A,]2 [A,,A,] | %22
 [A,,A,][A,,A,][A,,A,] [A,,A,][A,,A,][A,,A,] | [D,A,]2 [D,A,] [D,A,D]2 [D,A,] | D,2 D, D,2 D, | %25
 z[K:treble] c[K:bass]D, D,2 D, | z[K:treble] B[K:bass]F, z G^D, | [E,B,E]2 [E,B,] [E,B,]2 [E,B,] | %28
 [=F,B,D]2 [F,B,] [F,B,D]2 [F,B,] | [F,A,D]2 [F,DF] [G,B,E]2 [^G,B,] | FD[K:bass]A, z GA,, | %31
 [D,F,]2 [D,G,] [D,F,]3 |] %32
V:3
 x6 | x6 | x6 | x6 | x6 | x6 | x6 | x6 | x6 | x6 | x6 | x6 | x6 | x6 | x6 | z2 E G3 | %16
 [DF]2 [DF] FFF | .F3 F3 | x6 | z2 A, A,2 E | .[CG]3 .[CG]3 | z3 E3 | x6 | z3 F3 | %24
 [DF]2 [DF] [DF]2 [DF] | .[DFd]2 [DFB] [A,D]2 [A,D] | .[B,A]3 z3 | z2 E E2 E | z2 D z2 D | %29
 AFA z2 =F | x6 | z2 B, A,3 |] %32
V:4
 x6 | x6 | x6 | x6 | x6 | x6 | x6 | x6 | x6 | x6 | x6 | x6 | x6 | x6 | x6 | .C3 z3 | x6 | x6 | %18
 .D,3[K:treble][K:bass] z3 | x6 | x6 | x6 | x6 | x6 | x6 | .D,3[K:treble][K:bass] z3 | %26
 B,,3[K:treble][K:bass] .B,,3 | x6 | x6 | x6 | .A,3[K:bass] .A,,3 | x6 |] %32

